Source/WebInspectorUI/UserInterface/Images/gtk/ReloadFull.svg

<?xml version="1.0" encoding="UTF-8" standalone="no"?>
<!-- Created with Inkscape (http://www.inkscape.org/) -->

<svg
   xmlns:dc="http://purl.org/dc/elements/1.1/"
   xmlns:cc="http://creativecommons.org/ns#"
   xmlns:rdf="http://www.w3.org/1999/02/22-rdf-syntax-ns#"
   xmlns:svg="http://www.w3.org/2000/svg"
   xmlns="http://www.w3.org/2000/svg"
   version="1.1"
   width="13"
   height="13"
   id="svg5505">
  <defs
     id="defs5507">
    <linearGradient
       id="linearGradient19282-6"
       gradientTransform="matrix(-2.7365795,0.40810354,-0.18908311,-1.4468561,-108259.94,-90943.922)">
      <stop
         id="stop19284-8"
         style="stop-color:#666666;stop-opacity:1"
         offset="0" />
    </linearGradient>
    <linearGradient
       id="linearGradient6864"
       gradientTransform="matrix(-2.7365795,0.40810354,-0.18908311,-1.4468561,-108246.9,-90947.248)">
      <stop
         id="stop6866"
         style="stop-color:#666666;stop-opacity:1"
         offset="0" />
    </linearGradient>
    <linearGradient
       id="linearGradient19282-6-0"
       gradientTransform="matrix(-2.7365795,0.40810354,-0.18908311,-1.4468561,-108257.94,-90943.922)">
      <stop
         id="stop19284-8-3"
         style="stop-color:#666666;stop-opacity:1"
         offset="0" />
    </linearGradient>
    <linearGradient
       id="linearGradient19282-6-8"
       gradientTransform="matrix(-2.7365795,0.40810354,-0.18908311,-1.4468561,-108259.94,-90943.922)">
      <stop
         id="stop19284-8-2"
         style="stop-color:#666666;stop-opacity:1"
         offset="0" />
    </linearGradient>
    <linearGradient
       id="linearGradient6933"
       gradientTransform="matrix(-2.7365795,0.40810354,-0.18908311,-1.4468561,-108259.94,-90943.922)">
      <stop
         id="stop6935"
         style="stop-color:#666666;stop-opacity:1"
         offset="0" />
    </linearGradient>
    <linearGradient
       id="linearGradient19282-6-0-7"
       gradientTransform="matrix(-2.7365795,0.40810354,-0.18908311,-1.4468561,-108257.94,-90943.922)">
      <stop
         id="stop19284-8-3-5"
         style="stop-color:#666666;stop-opacity:1"
         offset="0" />
    </linearGradient>
    <linearGradient
       id="linearGradient19282-6-9"
       gradientTransform="matrix(-2.7365795,0.40810354,-0.18908311,-1.4468561,-108259.94,-90943.922)">
      <stop
         id="stop19284-8-7"
         style="stop-color:#666666;stop-opacity:1"
         offset="0" />
    </linearGradient>
    <linearGradient
       id="linearGradient6990"
       gradientTransform="matrix(-2.7365795,0.40810354,-0.18908311,-1.4468561,-108259.94,-90943.922)">
      <stop
         id="stop6992"
         style="stop-color:#666666;stop-opacity:1"
         offset="0" />
    </linearGradient>
    <linearGradient
       id="linearGradient19282-6-0-0"
       gradientTransform="matrix(-2.7365795,0.40810354,-0.18908311,-1.4468561,-108257.94,-90943.922)">
      <stop
         id="stop19284-8-3-0"
         style="stop-color:#666666;stop-opacity:1"
         offset="0" />
    </linearGradient>
    <linearGradient
       id="linearGradient19282-6-8-4"
       gradientTransform="matrix(-2.7365795,0.40810354,-0.18908311,-1.4468561,-108259.94,-90943.922)">
      <stop
         id="stop19284-8-2-4"
         style="stop-color:#666666;stop-opacity:1"
         offset="0" />
    </linearGradient>
    <linearGradient
       id="linearGradient6998"
       gradientTransform="matrix(-2.7365795,0.40810354,-0.18908311,-1.4468561,-108259.94,-90943.922)">
      <stop
         id="stop7000"
         style="stop-color:#666666;stop-opacity:1"
         offset="0" />
    </linearGradient>
    <linearGradient
       id="linearGradient19282-6-0-7-8"
       gradientTransform="matrix(-2.7365795,0.40810354,-0.18908311,-1.4468561,-108257.94,-90943.922)">
      <stop
         id="stop19284-8-3-5-7"
         style="stop-color:#666666;stop-opacity:1"
         offset="0" />
    </linearGradient>
    <linearGradient
       id="linearGradient19282-6-97"
       gradientTransform="matrix(-2.7365795,0.40810354,-0.18908311,-1.4468561,-108259.94,-90943.922)">
      <stop
         id="stop19284-8-0"
         style="stop-color:#666666;stop-opacity:1"
         offset="0" />
    </linearGradient>
    <linearGradient
       id="linearGradient6990-4"
       gradientTransform="matrix(-2.7365795,0.40810354,-0.18908311,-1.4468561,-108259.94,-90943.922)">
      <stop
         id="stop6992-9"
         style="stop-color:#666666;stop-opacity:1"
         offset="0" />
    </linearGradient>
    <linearGradient
       id="linearGradient19282-6-0-9"
       gradientTransform="matrix(-2.7365795,0.40810354,-0.18908311,-1.4468561,-108257.94,-90943.922)">
      <stop
         id="stop19284-8-3-8"
         style="stop-color:#666666;stop-opacity:1"
         offset="0" />
    </linearGradient>
    <linearGradient
       id="linearGradient19282-6-8-9"
       gradientTransform="matrix(-2.7365795,0.40810354,-0.18908311,-1.4468561,-108259.94,-90943.922)">
      <stop
         id="stop19284-8-2-46"
         style="stop-color:#666666;stop-opacity:1"
         offset="0" />
    </linearGradient>
    <linearGradient
       id="linearGradient6998-2"
       gradientTransform="matrix(-2.7365795,0.40810354,-0.18908311,-1.4468561,-108259.94,-90943.922)">
      <stop
         id="stop7000-6"
         style="stop-color:#666666;stop-opacity:1"
         offset="0" />
    </linearGradient>
    <linearGradient
       id="linearGradient19282-6-0-7-2"
       gradientTransform="matrix(-2.7365795,0.40810354,-0.18908311,-1.4468561,-108257.94,-90943.922)">
      <stop
         id="stop19284-8-3-5-3"
         style="stop-color:#666666;stop-opacity:1"
         offset="0" />
    </linearGradient>
    <linearGradient
       id="linearGradient19282"
       gradientTransform="matrix(-1.5203223,0.22672424,-0.10504619,-0.80380914,-411.92227,-1905.8545)">
      <stop
         id="stop19284"
         style="stop-color:#666666;stop-opacity:1"
         offset="0" />
    </linearGradient>
    <linearGradient
       id="linearGradient6711"
       gradientTransform="matrix(-2.7365795,0.40810354,-0.18908311,-1.4468561,239.54008,-1703.6896)">
      <stop
         id="stop6713"
         style="stop-color:#666666;stop-opacity:1"
         offset="0" />
    </linearGradient>
    <linearGradient
       id="linearGradient19282-8"
       gradientTransform="matrix(-1.5203223,0.22672424,-0.10504619,-0.80380914,-411.92227,-1905.8545)">
      <stop
         id="stop19284-4"
         style="stop-color:#666666;stop-opacity:1"
         offset="0" />
    </linearGradient>
    <linearGradient
       id="linearGradient19282-9"
       gradientTransform="matrix(-2.7365795,0.40810354,-0.18908311,-1.4468561,-350.45992,-3317.414)">
      <stop
         id="stop19284-3"
         style="stop-color:#666666;stop-opacity:1"
         offset="0" />
    </linearGradient>
    <linearGradient
       id="linearGradient9448"
       gradientTransform="matrix(-2.7365795,0.40810354,-0.18908311,-1.4468561,239.54008,-1703.6896)">
      <stop
         id="stop9450"
         style="stop-color:#666666;stop-opacity:1"
         offset="0" />
    </linearGradient>
    <linearGradient
       id="linearGradient9452"
       gradientTransform="matrix(-2.7365795,0.40810354,-0.18908311,-1.4468561,239.54008,-1703.6896)">
      <stop
         id="stop9454"
         style="stop-color:#666666;stop-opacity:1"
         offset="0" />
    </linearGradient>
    <linearGradient
       id="linearGradient9456"
       gradientTransform="matrix(-2.7365795,0.40810354,-0.18908311,-1.4468561,239.54008,-1703.6896)">
      <stop
         id="stop9458"
         style="stop-color:#666666;stop-opacity:1"
         offset="0" />
    </linearGradient>
  </defs>
  <metadata
     id="metadata5510">
    <rdf:RDF>
      <cc:Work
         rdf:about="">
        <dc:format>image/svg+xml</dc:format>
        <dc:type
           rdf:resource="http://purl.org/dc/dcmitype/StillImage" />
        <dc:title></dc:title>
        <cc:license
           rdf:resource="http://creativecommons.org/licenses/by-sa/3.0/" />
      </cc:Work>
      <cc:License
         rdf:about="http://creativecommons.org/licenses/by-sa/3.0/">
        <cc:permits
           rdf:resource="http://creativecommons.org/ns#Reproduction" />
        <cc:permits
           rdf:resource="http://creativecommons.org/ns#Distribution" />
        <cc:requires
           rdf:resource="http://creativecommons.org/ns#Notice" />
        <cc:requires
           rdf:resource="http://creativecommons.org/ns#Attribution" />
        <cc:permits
           rdf:resource="http://creativecommons.org/ns#DerivativeWorks" />
        <cc:requires
           rdf:resource="http://creativecommons.org/ns#ShareAlike" />
      </cc:License>
    </rdf:RDF>
  </metadata>
  <g
     transform="translate(0,-3)"
     id="layer1"
     style="display:none">
    <path
       d="m 2,2.9881657 c -1.05237,0 -2,0.84508 -2,1.9375 L 0,14.0625 C 0,15.15492 0.94763,16 2,16 l 11,0 c 1.05237,0 2,-0.84508 2,-1.9375 l 0,-9.1368343 c 0,-1.09242 -0.94763,-1.9375 -2,-1.9375 z M 2,6 l 3.03125,0 0,2 L 2,8 z M 6.03125,6 9,6 9,8 6.03125,8 z M 10,6 l 3,0 0,2 -3,0 z m -8,3 3.03125,0 0,2 L 2,11 z M 6.03125,9 9,9 9,11 6.03125,11 z M 10,9 l 3,0 0,2 -3,0 z m -8,3 3.03125,0 0,2 L 2,14 z M 6.03125,12 9,12 9,14 6.03125,14 z M 10,12 l 3,0 0,2 -3,0 z"
       id="rect27790"
       style="font-size:medium;font-style:normal;font-variant:normal;font-weight:normal;font-stretch:normal;text-indent:0;text-align:start;text-decoration:none;line-height:normal;letter-spacing:normal;word-spacing:normal;text-transform:none;direction:ltr;block-progression:tb;writing-mode:lr-tb;text-anchor:start;baseline-shift:baseline;color:#000000;fill-opacity:1;stroke:none;stroke-width:2;marker:none;visibility:visible;display:inline;overflow:visible;enable-background:new;font-family:Sans;-inkscape-font-specification:Sans" />
    <g
       transform="translate(21.103423,-1.4639636)"
       id="g7107">
      <g
         id="g6968">
        <g
           transform="translate(0.65192398,4.7199398)"
           id="g6916">
          <rect
             width="1"
             height="1"
             x="-3.8970413"
             y="1.4201183"
             id="rect20774-7"
             style="fill-opacity:1;stroke:none" />
          <rect
             width="1"
             height="1"
             x="-2.8970413"
             y="0.42011827"
             id="rect20776-7"
             style="fill-opacity:1;stroke:none" />
          <rect
             width="1"
             height="1"
             x="-1.8970413"
             y="1.4201183"
             id="rect20774-7-0"
             style="fill-opacity:1;stroke:none" />
        </g>
        <g
           transform="translate(0.65192398,6.7199399)"
           id="g6916-5">
          <rect
             width="1"
             height="1"
             x="-3.8970413"
             y="1.4201183"
             id="rect20774-7-3"
             style="fill-opacity:1;stroke:none" />
          <rect
             width="1"
             height="1"
             x="-2.8970413"
             y="0.42011827"
             id="rect20776-7-9"
             style="fill-opacity:1;stroke:none" />
          <rect
             width="1"
             height="1"
             x="-1.8970413"
             y="1.4201183"
             id="rect20774-7-0-6"
             style="fill-opacity:1;stroke:none" />
        </g>
      </g>
      <g
         transform="translate(0,4.0000002)"
         id="g6968-2">
        <g
           transform="translate(0.65192398,4.7199398)"
           id="g6916-2">
          <rect
             width="1"
             height="1"
             x="-3.8970413"
             y="1.4201183"
             id="rect20774-7-6"
             style="fill-opacity:1;stroke:none" />
          <rect
             width="1"
             height="1"
             x="-2.8970413"
             y="0.42011827"
             id="rect20776-7-6"
             style="fill-opacity:1;stroke:none" />
          <rect
             width="1"
             height="1"
             x="-1.8970413"
             y="1.4201183"
             id="rect20774-7-0-60"
             style="fill-opacity:1;stroke:none" />
        </g>
        <g
           transform="translate(0.65192398,6.7199399)"
           id="g6916-5-6">
          <rect
             width="1"
             height="1"
             x="-3.8970413"
             y="1.4201183"
             id="rect20774-7-3-2"
             style="fill-opacity:1;stroke:none" />
          <rect
             width="1"
             height="1"
             x="-2.8970413"
             y="0.42011827"
             id="rect20776-7-9-0"
             style="fill-opacity:1;stroke:none" />
          <rect
             width="1"
             height="1"
             x="-1.8970413"
             y="1.4201183"
             id="rect20774-7-0-6-0"
             style="fill-opacity:1;stroke:none" />
        </g>
      </g>
      <g
         transform="translate(0,8.0000004)"
         id="g6968-5">
        <g
           transform="translate(0.65192398,4.7199398)"
           id="g6916-24">
          <rect
             width="1"
             height="1"
             x="-3.8970413"
             y="1.4201183"
             id="rect20774-7-1"
             style="fill-opacity:1;stroke:none" />
          <rect
             width="1"
             height="1"
             x="-2.8970413"
             y="0.42011827"
             id="rect20776-7-8"
             style="fill-opacity:1;stroke:none" />
          <rect
             width="1"
             height="1"
             x="-1.8970413"
             y="1.4201183"
             id="rect20774-7-0-4"
             style="fill-opacity:1;stroke:none" />
        </g>
        <g
           transform="translate(0.65192398,6.7199399)"
           id="g6916-5-9">
          <rect
             width="1"
             height="1"
             x="-3.8970413"
             y="1.4201183"
             id="rect20774-7-3-1"
             style="fill-opacity:1;stroke:none" />
          <rect
             width="1"
             height="1"
             x="-2.8970413"
             y="0.42011827"
             id="rect20776-7-9-8"
             style="fill-opacity:1;stroke:none" />
          <rect
             width="1"
             height="1"
             x="-1.8970413"
             y="1.4201183"
             id="rect20774-7-0-6-7"
             style="fill-opacity:1;stroke:none" />
        </g>
      </g>
    </g>
    <rect
       width="2.8367083"
       height="11.788143"
       x="6.081646"
       y="3.7941763"
       id="rect7136"
       style="color:#000000;fill-opacity:1;fill-rule:nonzero;stroke:#000000;stroke-width:0.83536196;stroke-miterlimit:4;stroke-opacity:1;stroke-dasharray:none;marker:none;visibility:visible;display:inline;overflow:visible;enable-background:accumulate" />
    <path
       d="m -1.4538462,14.453846 0,-1 -1,0 0,1 -1,0 0,-1 1,0 0,-1 -1,0 0,-1 1,0 0,-1 -1,0 0,-0.9999998 1,0 0,-1 -1,0 0,-1 1,0 0,-1 1,0 0,1 1.00000005,0 0,1 -1.00000005,0 0,1 1.00000005,0 0,0.9999998 -1.00000005,0 0,1 1.00000005,0 0,1 -1.00000005,0 0,1 1.00000005,0 0,1 -1.00000005,0 m 5,2 c 1.05237,0 2,-0.84508 2,-1.9375 l 0,-9.1249998 c 0,-1.09242 -0.94763,-1.9375 -2,-1.9375 l -11,0 c -1.0523696,0 -2,0.84508 -2,1.9375 l 0,9.1249998 c 0,1.09242 0.9476304,1.9375 2,1.9375 m 6,-4 0,-1 -1,0 0,1 z m 0,-2 0,-0.9999998 -1,0 0,0.9999998 z m 0,-1.9999998 0,-1 -1,0 0,1 z m 0,-2 -1,0 z m -6,0 3.03125,0 0,2 -3.03125,0 z m 8.00000005,0 2.99999995,0 0,2 -2.99999995,0 z m -8.00000005,3 3.03125,0 0,1.9999998 -3.03125,0 z m 8.00000005,0 2.99999995,0 0,1.9999998 -2.99999995,0 z m -8.00000005,2.9999998 3.03125,0 0,2 -3.03125,0 z m 8.00000005,0 2.99999995,0 0,2 -2.99999995,0 z"
       id="rect27790-9-7"
       style="font-size:medium;font-style:normal;font-variant:normal;font-weight:normal;font-stretch:normal;text-indent:0;text-align:start;text-decoration:none;line-height:normal;letter-spacing:normal;word-spacing:normal;text-transform:none;direction:ltr;block-progression:tb;writing-mode:lr-tb;text-anchor:start;baseline-shift:baseline;color:#000000;fill-opacity:1;stroke:none;stroke-width:2;marker:none;visibility:visible;display:inline;overflow:visible;enable-background:new;font-family:Sans;-inkscape-font-specification:Sans" />
  </g>
  <g
     id="layer2">
    <g
       transform="matrix(0.99964104,0,0,0.99964104,-0.99937678,-1.481425)"
       id="layer1-2">
      <path
         d="M 12.90625,1.96875 C 12.86397,1.9764663 12.822187,1.9869119 12.78125,2 12.334096,2.1001409 11.98897,2.5419023 12,3 l 0,1.6875 C 11.617752,4.10954 11.15073,3.60527 10.59375,3.1875 9.43812,2.32073 8.0617648,1.93523 6.71875,2 6.5268907,2.009 6.3465225,2.0353 6.15625,2.0625 4.63407,2.27991 3.1781,3.08554 2.1875,4.40625 0.20631,7.04769 0.76483,10.8313 3.40625,12.8125 6.04772,14.79372 9.83129,14.23517 11.8125,11.59375 11.935176,11.422061 12.001825,11.211005 12,11 c 0.004,-0.05198 0.004,-0.104272 0,-0.15625 L 12,10 11.1875,10 11.09375,10 C 11.062523,9.9985438 11.031227,9.9985438 11,10 10.685846,9.9985471 10.37483,10.154055 10.1875,10.40625 8.85485,12.18299 6.37048,12.52012 4.59375,11.1875 2.81701,9.85486 2.47985,7.37051 3.8125,5.59375 5.14515,3.81701 7.6295,3.47986 9.40625,4.8125 9.8357139,5.13462 10.175795,5.54545 10.4375,6 L 9,6 C 8.4764155,6.0000524 8.0000524,6.4764155 8,7 7.99201,7.072625 7.99201,7.1461254 8,7.21875 L 8,8 8.84375,8 9,8 l 4,0 1,0 0,-1 c 0,-1.6666667 0,-3.3612728 0,-5.0279395 -0.364602,0.0034 -0.729177,-0.00179 -1.09375,-0.00326 z"
         id="path4597"
         style="font-size:medium;font-style:normal;font-variant:normal;font-weight:normal;font-stretch:normal;text-indent:0;text-align:start;text-decoration:none;line-height:normal;letter-spacing:normal;word-spacing:normal;text-transform:none;direction:ltr;block-progression:tb;writing-mode:lr-tb;text-anchor:start;baseline-shift:baseline;color:#bebebe;fill-opacity:1;stroke:none;stroke-width:2;marker:none;visibility:visible;display:inline;overflow:visible;enable-background:accumulate;font-family:Sans;-inkscape-font-specification:Sans" />
    </g>
  </g>
</svg>

<?xml version="1.0" encoding="UTF-8" standalone="no"?>
<!-- Licensed under the Creative Commons Attribution-Share Alike 3.0 United States License (http://creativecommons.org/licenses/by-sa/3.0/) -->
<svg xmlns="http://www.w3.org/2000/svg" version="1.1" viewBox="0 0 13 13">
 <g display="none" transform="translate(0,-3)">
  <path style="block-progression:tb;text-indent:0;color:#000000;enable-background:new;text-transform:none" d="m2 2.9882c-1.0524 0-2 0.84508-2 1.9375v9.1363c0 1.093 0.94763 1.938 2 1.938h11c1.0524 0 2-0.84508 2-1.9375v-9.1368c0-1.0924-0.94763-1.9375-2-1.9375zm0 3.0118h3.0312v2h-3.0312zm4.0312 0h2.9688v2h-2.9688zm3.9688 0h3v2h-3zm-8 3h3.0312v2h-3.0312zm4.0312 0h2.9688v2h-2.9688zm3.9688 0h3v2h-3zm-8 3h3.0312v2h-3.0312zm4.0312 0h2.9688v2h-2.9688zm3.9688 0h3v2h-3z" display="inline"/>
  <g transform="translate(21.103 -1.464)">
   <g transform="translate(.65192 4.7199)">
    <rect height="1" width="1" y="1.4201" x="-3.897"/>
    <rect height="1" width="1" y=".42012" x="-2.897"/>
    <rect height="1" width="1" y="1.4201" x="-1.897"/>
   </g>
   <g transform="translate(.65192 6.7199)">
    <rect height="1" width="1" y="1.4201" x="-3.897"/>
    <rect height="1" width="1" y=".42012" x="-2.897"/>
    <rect height="1" width="1" y="1.4201" x="-1.897"/>
   </g>
   <g transform="translate(0 4)">
    <g transform="translate(.65192 4.7199)">
     <rect height="1" width="1" y="1.4201" x="-3.897"/>
     <rect height="1" width="1" y=".42012" x="-2.897"/>
     <rect height="1" width="1" y="1.4201" x="-1.897"/>
    </g>
    <g transform="translate(.65192 6.7199)">
     <rect height="1" width="1" y="1.4201" x="-3.897"/>
     <rect height="1" width="1" y=".42012" x="-2.897"/>
     <rect height="1" width="1" y="1.4201" x="-1.897"/>
    </g>
   </g>
   <g transform="translate(0 8)">
    <g transform="translate(.65192 4.7199)">
     <rect height="1" width="1" y="1.4201" x="-3.897"/>
     <rect height="1" width="1" y=".42012" x="-2.897"/>
     <rect height="1" width="1" y="1.4201" x="-1.897"/>
    </g>
    <g transform="translate(.65192 6.7199)">
     <rect height="1" width="1" y="1.4201" x="-3.897"/>
     <rect height="1" width="1" y=".42012" x="-2.897"/>
     <rect height="1" width="1" y="1.4201" x="-1.897"/>
    </g>
   </g>
  </g>
  <rect style="color:#000000" height="11.788" width="2.8367" stroke="#000" display="inline" y="3.7942" x="6.0816" stroke-width=".83536"/>
  <path style="block-progression:tb;text-indent:0;color:#000000;enable-background:new;text-transform:none" d="m-1.4538 14.454v-1h-1v1h-1v-1h1v-1h-1v-1h1v-1h-1v-1h1v-1h-1v-1h1v-1h1v1h1v1h-1v1h1v1h-1v1h1v1h-1v1h1v1h-1m5 2c1.0524 0 2-0.84508 2-1.9375v-9.125c0-1.0924-0.94763-1.9375-2-1.9375h-11c-1.0524 0-2 0.84508-2 1.9375v9.125c0 1.0924 0.94763 1.9375 2 1.9375m6-4v-1h-1v1zm0-2v-1h-1v1zm0-2v-1h-1v1zm0-2h-1zm-6 0h3.0312v2h-3.0312zm8 0h3v2h-3zm-8 3h3.0312v2h-3.0312zm8 0h3v2h-3zm-8 3h3.0312v2h-3.0312zm8 0h3v2h-3z" display="inline"/>
 </g>
 <g transform="matrix(.99964 0 0 .99964 -.99938 -1.4814)">
  <path style="block-progression:tb;text-indent:0;color:#bebebe;text-transform:none" d="m12.906 1.9688c-0.042 0.0077-0.084 0.0181-0.125 0.0312-0.447 0.1001-0.792 0.5419-0.781 1v1.6875c-0.382-0.578-0.849-1.0822-1.406-1.5-1.1559-0.8668-2.5322-1.2523-3.8752-1.1875-0.1919 0.009-0.3723 0.0353-0.5626 0.0625-1.5221 0.2174-2.9781 1.023-3.9687 2.3437-1.9812 2.6415-1.4227 6.4248 1.2187 8.4058 2.6415 1.982 6.4251 1.423 8.4058-1.218 0.123-0.172 0.19-0.383 0.188-0.594 0.004-0.05198 0.004-0.10427 0-0.15625v-0.844h-0.812-0.094c-0.031-0.0015-0.063-0.0015-0.094 0-0.314-0.0015-0.625 0.154-0.812 0.406-1.3332 1.777-3.8175 2.114-5.5942 0.782-1.7768-1.3331-2.114-3.8175-0.7813-5.5942 1.3327-1.7768 3.817-2.1139 5.5937-0.7813 0.4295 0.3221 0.7698 0.7329 1.0318 1.1875h-1.438c-0.5236 0.0001-0.9999 0.4764-1 1-0.008 0.0726-0.008 0.1461 0 0.2188v0.7812h0.8438 0.1562 4 1v-1-5.0279c-0.3646 0.0034-0.72918-0.00179-1.0938-0.00326z"/>
 </g>
</svg>
